teeny/solid/folder-no-access.svg

<svg width="15" height="15" viewBox="0 0 15 15" fill="none" xmlns="http://www.w3.org/2000/svg">
<path d="M7.5 6C6.11929 6 5 7.11929 5 8.5C5 9.00956 5.15245 9.48351 5.41423 9.87874L8.87874 6.41423C8.48351 6.15245 8.00956 6 7.5 6Z" fill="black"/>
<path d="M7.5 11C6.99048 11 6.51656 10.8476 6.12135 10.5858L9.58583 7.12135C9.84757 7.51656 10 7.99048 10 8.5C10 9.88071 8.88071 11 7.5 11Z" fill="black"/>
<path fill-rule="evenodd" clip-rule="evenodd" d="M0 2.5C0 1.67157 0.671573 1 1.5 1H5.70711L7.70711 3H13.5C14.3284 3 15 3.67157 15 4.5V12.5C15 13.3284 14.3284 14 13.5 14H1.5C0.671573 14 0 13.3284 0 12.5V2.5ZM4 8.5C4 6.567 5.567 5 7.5 5C9.433 5 11 6.567 11 8.5C11 10.433 9.433 12 7.5 12C5.567 12 4 10.433 4 8.5Z" fill="black"/>
</svg>

<svg viewBox="0 0 15 15" xmlns="http://www.w3.org/2000/svg"><g><path d="M7.5 6C6.11 6 5 7.11 5 8.5c0 .5.15.98.41 1.37L8.87 6.4c-.4-.27-.87-.42-1.38-.42Z"/><path d="M7.5 11c-.51 0-.99-.16-1.38-.42l3.46-3.47c.26.39.41.86.41 1.37 0 1.38-1.12 2.5-2.5 2.5Z"/><path fill-rule="evenodd" d="M0 2.5C0 1.67.67 1 1.5 1h4.2l2 2h5.79c.82 0 1.5.67 1.5 1.5v8c0 .82-.68 1.5-1.5 1.5h-12c-.83 0-1.5-.68-1.5-1.5v-10Zm4 6C4 6.56 5.56 5 7.5 5 9.43 5 11 6.56 11 8.5c0 1.93-1.57 3.5-3.5 3.5C5.56 12 4 10.43 4 8.5Z"/></g></svg>
